!!!COM: Fux, Johann Joseph
!!!OMD: Gradus ad Parnassum Exercise
!!!YEC: CC0 1.0 Universal (Public Domain). Mark Gotham and FourScoreAndMore.org waive all rights to this document.
**kern	**kern	**kern
*part3	*part2	*part1
*staff3	*staff2	*staff1
*I"3	*I"2	*I"1
*I'Pno	*I'Pno	*I'Pno
!!LO:LB:g=z
*clefGv2	*clefG2	*clefG2
*k[]	*k[]	*k[]
!!LO:TX:omd:t=
*M4/4	*M4/4	*M4/4
=76	=76	=76
!	!	!LO:TX:a:t=Fig. 111; Species&colon; 1; Modal final&colon; f; Cantus firmus&colon; 2
1f	1f	1a
=77	=77	=77
1e	1g	1cc
=78	=78	=78
1f	1a	1cc
=79	=79	=79
1d	1f	1dd
=80	=80	=80
1B-X	1d	1dd
=81	=81	=81
1G	1e	1b-X
=82	=82	=82
1F	1f	1a
=83	=83	=83
1E	1cc	1g
=84	=84	=84
1F	1a	1f
=85	=85	=85
1D	1f	1ff
=86	=86	=86
1C	1g	1ee
=87	=87	=87
1F	1f	1ff
==	==	==
*-	*-	*-
!!!software: music21 v.9.7.1
!!!software: music21 v.9.7.1
!!!software: MuseScore 3.4.2
!!!RDF**kern: > = above
!!!RDF**kern: < = below
